X: 21121
T: VALSE DE LORD LIVERPOOL
C: Musard.
Q: "Not too fast."
%R: waltz
B: W. Hamilton "Universal Tune-Book" Vol. 2 Glasgow 1846 p.112 #1
S: http://s3-eu-west-1.amazonaws.com/itma.dl.printmaterial/book_pdfs/hamiltonvol2web.pdf
Z: 2016 John Chambers <jc:trillian.mit.edu>
M: 3/4
L: 1/8
K: D
% - - - - - - - - - - - - - - - - - - - - - - - - -
d>d |\
d2A2f>f | f2d2a>a | a2g2f2 | ^d2e2c>c |\
c2A2e>e | e2c2a>a | a2^g2g2 | a4 :: c>e |\
g2f2^Ac | e2d2cB | ^A2B2c2 | d2B2ce |\
b2a2Ac |
g2f2ed | c2d2e2 | d4 H:: e2 |\
e2^d2e2 | c2^B2c2 | d2c2d2 | f2e2c2 |\
^g2fed2 | f2edc2 | e2dcB2 | A4 |]| E2 |\
EF^GABd | c2A2fe |
d2B2fe | c2A2e2 |\
EF^GABd | c2f2e2 | ^d2c2d2 | e2^d2=d2 |\
e2^d2e2 | c2^B2c2 | d2c2d2 | f2e2c2 |\
^g2fed2 | f2edc2 | e2dcB2 | A4 |]
% - - - - - - - - - - - - - - - - - - - - - - - - -

%%sep 1 1 500
%%sep 1 1 500

